X:1
T:Brian Boru
M:6/8
R:March
K:Edor
B | G>FE E2B | G>FE E2A | F>ED D2A | F>ED D2B |
G>FE E2B | G>FE E3 | EGA B2A |1 G<EE E2 :|2 G<EE E3 |
|: DGA B2A | B2A BAG | DFG A2F | A2F AFD |
EGA B2A | B2A BAG | EGA B2A |1 G<EE E3 :|2 G<EE E3 ||
